X: 10703
M: 6/8
L: 1/8
K: G
uD |\
ud |\
g2(d e)>dB | d>ed def | g2(d e)>dB | A>BA Aba |\
g2(d e)>dB | d>ef g>fe | e>dc B>cA | A<GG G2 "^D.C."|]
uB |\
(e2f) g>fe | (.f2.b) (.b2.B) | (e2f) gfe | ^dfb B3 |\
(e2f) g>fe | (f2c') (b2a) | gfe fed | e3- e2 "_D.C."|]


